src/epub/images/titlepage.svg

<?xml version="1.0" encoding="utf-8"?>
<svg xmlns="http://www.w3.org/2000/svg" xmlns:svg="http://www.w3.org/2000/svg" version="1.1" viewBox="0 0 1400 340">
	<title>The titlepage for the Standard Ebooks edition of The Airlords of Han, by Philip Francis Nowlan</title>
	<g>
		<path d="m 97.634493,68.245613 18.339177,0 0,61.754387 17.59065,0 0,-61.754387 18.33918,0 0,-15.438597 -54.269007,0 0,15.438597 z"/>
		<path d="m 180.82894,99.029239 24.88889,0 0,30.970761 17.59064,0 0,-77.192984 -17.59064,0 0,30.783626 -24.88889,0 0,-30.783626 -17.59065,0 0,77.192984 17.59065,0 0,-30.970761 z"/>
		<path d="m 283.67397,52.807016 -44.16374,0 0,77.192984 44.16374,0 0,-15.4386 -26.5731,0 0,-15.532161 25.4503,0 0,-15.438597 -25.4503,0 0,-15.345029 26.5731,0 0,-15.438597 z"/>
		<path d="m 368.57602,52.807016 -16.2807,0 L 321.13743,130 l 18.90058,0 5.7076,-15.4386 29.38012,0 5.7076,15.4386 18.90059,0 -31.1579,-77.192984 z m 0.56141,46.31579 -17.40351,0 8.60818,-22.45614 0.18714,0 8.60819,22.45614 z"/>
		<path d="m 425.24414,52.807016 -17.59065,0 0,77.192984 17.59065,0 0,-77.192984 z"/>
		<path d="m 441.52776,52.807016 0,77.192984 17.59064,0 0,-30.502925 L 482.69735,130 l 22.36258,0 -26.5731,-31.906433 c 9.45029,-2.994152 15.81286,-10.760234 15.81286,-22.362574 0,-15.157895 -10.8538,-22.923977 -25.16959,-22.923977 l -27.60234,0 z m 17.59064,34.245615 0,-20.210527 2.05848,0 c 6.64328,0 14.5965,0.467836 14.5965,10.105263 0,9.637428 -7.95322,10.105264 -14.5965,10.105264 l -2.05848,0 z"/>
		<path d="m 531.18713,52.807016 -17.59064,0 0,77.192984 44.16374,0 0,-15.4386 -26.5731,0 0,-61.754384 z"/>
		<path d="m 567.94883,91.356724 c 0,22.549706 16.09357,40.046786 38.92398,40.046786 22.17544,0 38.83041,-17.49708 38.83041,-40.046786 0,-22.549708 -17.40351,-39.953217 -38.83041,-39.953217 -21.23977,0 -38.92398,17.403509 -38.92398,39.953217 z m 18.99415,0 c 0,-11.508772 6.36258,-23.017544 19.92983,-23.017544 13.66082,0 19.83625,11.508772 19.83625,23.017544 0,11.508776 -5.80117,23.017546 -19.83625,23.017546 -14.40936,0 -19.92983,-11.50877 -19.92983,-23.017546 z"/>
		<path d="m 658.4649,52.807016 0,77.192984 17.59064,0 0,-30.502925 L 699.63449,130 l 22.36257,0 -26.5731,-31.906433 c 9.45029,-2.994152 15.81287,-10.760234 15.81287,-22.362574 0,-15.157895 -10.85381,-22.923977 -25.1696,-22.923977 l -27.60233,0 z m 17.59064,34.245615 0,-20.210527 2.05848,0 c 6.64327,0 14.59649,0.467836 14.59649,10.105263 0,9.637428 -7.95322,10.105264 -14.59649,10.105264 l -2.05848,0 z"/>
		<path d="m 730.53362,52.807016 0,77.192984 22.36257,0 c 21.23977,0 38.92398,-16.09357 38.92398,-38.643276 0,-22.45614 -17.77778,-38.549708 -38.92398,-38.549708 l -22.36257,0 z m 17.59064,61.473684 0,-45.754385 2.71345,0 c 13.09942,0 21.98831,10.011696 21.98831,22.923977 -0.0936,12.912278 -8.98246,22.830408 -21.98831,22.830408 l -2.71345,0 z"/>
		<path d="m 831.22953,51.403507 c -12.44444,0 -25.16959,9.169591 -25.16959,23.578948 0,8.046784 5.4269,15.251462 14.69006,19.836258 9.16959,4.584795 17.40351,7.111107 17.40351,12.725147 0,7.20468 -7.29825,7.57895 -11.13451,7.57895 -8.60818,0 -18.90058,-8.70176 -18.90058,-8.70176 l -8.79532,14.78363 c 0,0 10.94737,10.19883 29.00585,10.19883 15.06432,0 29.09941,-6.45614 29.09941,-24.88889 0,-10.105264 -9.45029,-17.40351 -18.05848,-21.052632 -8.79532,-3.742691 -16.09357,-6.83041 -16.09357,-11.134504 0,-4.210526 3.18129,-6.923976 9.16959,-6.923976 7.95322,0 15.62574,5.333333 15.62574,5.333333 l 7.11111,-14.035088 c 0,0 -9.91813,-7.298246 -23.95322,-7.298246 z"/>
		<path d="m 897.77341,91.356724 c 0,22.549706 16.09357,40.046786 38.92398,40.046786 22.17544,0 38.83041,-17.49708 38.83041,-40.046786 0,-22.549708 -17.40351,-39.953217 -38.83041,-39.953217 -21.23976,0 -38.92398,17.403509 -38.92398,39.953217 z m 18.99416,0 c 0,-11.508772 6.36257,-23.017544 19.92982,-23.017544 13.66082,0 19.83626,11.508772 19.83626,23.017544 0,11.508776 -5.80117,23.017546 -19.83626,23.017546 -14.40936,0 -19.92982,-11.50877 -19.92982,-23.017546 z"/>
		<path d="m 1032.9211,52.807016 -44.63162,0 0,77.192984 17.59062,0 0,-30.970761 24.9825,0 0,-15.438597 -24.9825,0 0,-15.345029 27.041,0 0,-15.438597 z"/>
		<path d="m 1094.462,99.029239 24.8889,0 0,30.970761 17.5906,0 0,-77.192984 -17.5906,0 0,30.783626 -24.8889,0 0,-30.783626 -17.5907,0 0,77.192984 17.5907,0 0,-30.970761 z"/>
		<path d="m 1192.348,52.807016 -16.2807,0 L 1144.9094,130 l 18.9006,0 5.7076,-15.4386 29.3801,0 5.7076,15.4386 18.9006,0 -31.1579,-77.192984 z m 0.5614,46.31579 -17.4035,0 8.6082,-22.45614 0.1871,0 8.6082,22.45614 z"/>
		<path d="m 1249.016,82.093566 0.1872,0 30.69,47.906434 17.5907,0 0,-77.192984 -17.5907,0 0,47.906434 -0.1871,0 -30.6901,-47.906434 -17.5906,0 0,77.192984 17.5906,0 0,-47.906434 z"/>
	</g>
	<g>
		<path d="m 184.70669,232.10526 0,57.89474 13.19299,0 0,-21.47368 7.92982,0 c 11.29825,0 19.78947,-6.66667 19.78947,-18.5965 0,-11.99999 -8.49122,-17.82456 -19.78947,-17.82456 l -21.12281,0 z M 197.89968,258 l 0,-15.36842 3.71929,0 c 5.19299,0 10.10527,1.75439 10.10527,7.7193 0,5.89473 -4.91228,7.64912 -10.10527,7.64912 l -3.71929,0 z"/>
		<path d="m 249.63761,266.77193 18.66667,0 0,23.22807 13.19298,0 0,-57.89474 -13.19298,0 0,23.08772 -18.66667,0 0,-23.08772 -13.19298,0 0,57.89474 13.19298,0 0,-23.22807 z"/>
		<path d="m 308.09155,232.10526 -13.19298,0 0,57.89474 13.19298,0 0,-57.89474 z"/>
		<path d="m 334.74726,232.10526 -13.19299,0 0,57.89474 33.12281,0 0,-11.57895 -19.92982,0 0,-46.31579 z"/>
		<path d="m 379.358,232.10526 -13.19298,0 0,57.89474 13.19298,0 0,-57.89474 z"/>
		<path d="m 392.82072,232.10526 0,57.89474 13.19298,0 0,-21.47368 7.92983,0 c 11.29824,0 19.78947,-6.66667 19.78947,-18.5965 0,-11.99999 -8.49123,-17.82456 -19.78947,-17.82456 l -21.12281,0 z M 406.0137,258 l 0,-15.36842 3.7193,0 c 5.19298,0 10.10527,1.75439 10.10527,7.7193 0,5.89473 -4.91229,7.64912 -10.10527,7.64912 l -3.7193,0 z"/>
		<path d="m 502.22093,232.10526 -33.47368,0 0,57.89474 13.19298,0 0,-23.22807 18.73685,0 0,-11.57895 -18.73685,0 0,-11.50877 20.2807,0 0,-11.57895 z"/>
		<path d="m 513.49505,232.10526 0,57.89474 13.19299,0 0,-22.87719 17.68421,22.87719 16.77193,0 -19.92983,-23.92982 C 548.30207,263.82456 553.074,258 553.074,249.29825 c 0,-11.36842 -8.14035,-17.19299 -18.87719,-17.19299 l -20.70176,0 z m 13.19299,25.68421 0,-15.15789 1.54386,0 c 4.98245,0 10.94736,0.35088 10.94736,7.57895 0,7.22807 -5.96491,7.57894 -10.94736,7.57894 l -1.54386,0 z"/>
		<path d="m 598.20011,232.10526 -12.21053,0 L 562.62116,290 l 14.17544,0 4.2807,-11.57895 22.03509,0 4.2807,11.57895 14.17544,0 -23.36842,-57.89474 z m 0.42105,34.73685 -13.05263,0 6.45614,-16.84211 0.14035,0 6.45614,16.84211 z"/>
		<path d="m 641.95119,254.07018 0.14035,0 23.01754,35.92982 13.19299,0 0,-57.89474 -13.19299,0 0,35.92983 -0.14035,0 -23.01754,-35.92983 -13.19298,0 0,57.89474 13.19298,0 0,-35.92982 z"/>
		<path d="m 720.34922,278.07018 c -13.26316,0 -19.08772,-9.26316 -19.08772,-17.05264 0,-7.71929 5.82456,-16.98245 19.08772,-16.98245 6.73684,0 11.36842,3.57895 11.36842,3.57895 l 5.61404,-11.22807 c 0,0 -6.45614,-5.33334 -19.01755,-5.33334 -16.42105,0 -31.36842,13.47369 -31.36842,30.10527 0,16.5614 15.01755,29.89473 31.36842,29.89473 12.56141,0 19.01755,-5.33333 19.01755,-5.33333 l -5.61404,-11.22807 c 0,0 -4.63158,3.57895 -11.36842,3.57895 z"/>
		<path d="m 760.64089,232.10526 -13.19299,0 0,57.89474 13.19299,0 0,-57.89474 z"/>
		<path d="m 794.06633,231.05263 c -9.33333,0 -18.87719,6.8772 -18.87719,17.68421 0,6.03509 4.07017,11.4386 11.01754,14.8772 6.8772,3.43859 13.05263,5.33333 13.05263,9.54385 0,5.40351 -5.47368,5.68422 -8.35087,5.68422 -6.45614,0 -14.17544,-6.52632 -14.17544,-6.52632 l -6.59649,11.08772 c 0,0 8.21052,7.64912 21.75438,7.64912 11.29825,0 21.82456,-4.8421 21.82456,-18.66666 0,-7.57895 -7.08771,-13.05264 -13.54385,-15.78948 -6.5965,-2.80702 -12.07018,-5.12281 -12.07018,-8.35088 0,-3.15789 2.38596,-5.19298 6.87719,-5.19298 5.96492,0 11.7193,4 11.7193,4 l 5.33333,-10.52631 c 0,0 -7.43859,-5.47369 -17.96491,-5.47369 z"/>
		<path d="m 862.26369,254.07018 0.14035,0 23.01754,35.92982 13.19299,0 0,-57.89474 -13.19299,0 0,35.92983 -0.14035,0 -23.01754,-35.92983 -13.19298,0 0,57.89474 13.19298,0 0,-35.92982 z"/>
		<path d="m 909.45121,261.01754 c 0,16.91228 12.07017,30.03509 29.19298,30.03509 16.63158,0 29.1228,-13.12281 29.1228,-30.03509 0,-16.91228 -13.05263,-29.96491 -29.1228,-29.96491 -15.92983,0 -29.19298,13.05263 -29.19298,29.96491 z m 14.24561,0 c 0,-8.63157 4.77193,-17.26315 14.94737,-17.26315 10.24561,0 14.87719,8.63158 14.87719,17.26315 0,8.63158 -4.35088,17.26316 -14.87719,17.26316 -10.80702,0 -14.94737,-8.63158 -14.94737,-17.26316 z"/>
		<path d="m 1020.8163,290 14.5965,0 16.4913,-57.89474 -14.5965,0 -9.8948,39.7193 -0.3508,0 -10.5264,-39.7193 -9.9649,0 -10.52629,39.7193 -0.35087,0 -9.89474,-39.7193 -14.66667,0 16.49123,57.89474 14.66664,0 9.2632,-32.49123 9.2631,32.49123 z"/>
		<path d="m 1073.2615,232.10526 -13.193,0 0,57.89474 33.1228,0 0,-11.57895 -19.9298,0 0,-46.31579 z"/>
		<path d="m 1135.1793,232.10526 -12.2105,0 -23.3685,57.89474 14.1755,0 4.2807,-11.57895 22.0351,0 4.2807,11.57895 14.1754,0 -23.3684,-57.89474 z m 0.421,34.73685 -13.0526,0 6.4562,-16.84211 0.1403,0 6.4561,16.84211 z"/>
		<path d="m 1178.9304,254.07018 0.1403,0 23.0176,35.92982 13.193,0 0,-57.89474 -13.193,0 0,35.92983 -0.1404,0 -23.0175,-35.92983 -13.193,0 0,57.89474 13.193,0 0,-35.92982 z"/>
	</g>
</svg>

<?xml version="1.0" encoding="utf-8"?>
<svg xmlns="http://www.w3.org/2000/svg" xmlns:svg="http://www.w3.org/2000/svg" version="1.1" viewBox="0 0 1400 340">
	<title>The titlepage for the Standard Ebooks edition of The Airlords of Han, by Philip Francis Nowlan</title>
	<g aria-label="THE AIRLORDS OF HAN">
		<path d="M 97.634493,68.245613 H 115.97367 V 130 h 17.59065 V 68.245613 H 151.9035 V 52.807016 H 97.634493 Z"/>
		<path d="m 180.82894,99.029239 h 24.88889 V 130 h 17.59064 V 52.807016 H 205.71783 V 83.590642 H 180.82894 V 52.807016 H 163.23829 V 130 h 17.59065 z"/>
		<path d="M 283.67397,52.807016 H 239.51023 V 130 h 44.16374 v -15.4386 h -26.5731 V 99.029239 h 25.4503 V 83.590642 h -25.4503 V 68.245613 h 26.5731 z"/>
		<path d="m 368.57602,52.807016 h -16.2807 L 321.13743,130 h 18.90058 l 5.7076,-15.4386 h 29.38012 L 380.83333,130 h 18.90059 z m 0.56141,46.31579 h -17.40351 l 8.60818,-22.45614 h 0.18714 z"/>
		<path d="M 425.24414,52.807016 H 407.65349 V 130 h 17.59065 z"/>
		<path d="M 441.52776,52.807016 V 130 H 459.1184 V 99.497075 L 482.69735,130 h 22.36258 l -26.5731,-31.906433 c 9.45029,-2.994152 15.81286,-10.760234 15.81286,-22.362574 0,-15.157895 -10.8538,-22.923977 -25.16959,-22.923977 z M 459.1184,87.052631 V 66.842104 h 2.05848 c 6.64328,0 14.5965,0.467836 14.5965,10.105263 0,9.637428 -7.95322,10.105264 -14.5965,10.105264 z"/>
		<path d="M 531.18713,52.807016 H 513.59649 V 130 h 44.16374 v -15.4386 h -26.5731 z"/>
		<path d="m 567.94883,91.356724 c 0,22.549706 16.09357,40.046786 38.92398,40.046786 22.17544,0 38.83041,-17.49708 38.83041,-40.046786 0,-22.549708 -17.40351,-39.953217 -38.83041,-39.953217 -21.23977,0 -38.92398,17.403509 -38.92398,39.953217 z m 18.99415,0 c 0,-11.508772 6.36258,-23.017544 19.92983,-23.017544 13.66082,0 19.83625,11.508772 19.83625,23.017544 0,11.508776 -5.80117,23.017546 -19.83625,23.017546 -14.40936,0 -19.92983,-11.50877 -19.92983,-23.017546 z"/>
		<path d="M 658.4649,52.807016 V 130 h 17.59064 V 99.497075 L 699.63449,130 h 22.36257 l -26.5731,-31.906433 c 9.45029,-2.994152 15.81287,-10.760234 15.81287,-22.362574 0,-15.157895 -10.85381,-22.923977 -25.1696,-22.923977 z m 17.59064,34.245615 V 66.842104 h 2.05848 c 6.64327,0 14.59649,0.467836 14.59649,10.105263 0,9.637428 -7.95322,10.105264 -14.59649,10.105264 z"/>
		<path d="M 730.53362,52.807016 V 130 h 22.36257 c 21.23977,0 38.92398,-16.09357 38.92398,-38.643276 0,-22.45614 -17.77778,-38.549708 -38.92398,-38.549708 z M 748.12426,114.2807 V 68.526315 h 2.71345 c 13.09942,0 21.98831,10.011696 21.98831,22.923977 -0.0936,12.912278 -8.98246,22.830408 -21.98831,22.830408 z"/>
		<path d="m 831.22953,51.403507 c -12.44444,0 -25.16959,9.169591 -25.16959,23.578948 0,8.046784 5.4269,15.251462 14.69006,19.836258 9.16959,4.584795 17.40351,7.111107 17.40351,12.725147 0,7.20468 -7.29825,7.57895 -11.13451,7.57895 -8.60818,0 -18.90058,-8.70176 -18.90058,-8.70176 l -8.79532,14.78363 c 0,0 10.94737,10.19883 29.00585,10.19883 15.06432,0 29.09941,-6.45614 29.09941,-24.88889 0,-10.105264 -9.45029,-17.40351 -18.05848,-21.052632 -8.79532,-3.742691 -16.09357,-6.83041 -16.09357,-11.134504 0,-4.210526 3.18129,-6.923976 9.16959,-6.923976 7.95322,0 15.62574,5.333333 15.62574,5.333333 l 7.11111,-14.035088 c 0,0 -9.91813,-7.298246 -23.95322,-7.298246 z"/>
		<path d="m 897.77341,91.356724 c 0,22.549706 16.09357,40.046786 38.92398,40.046786 22.17544,0 38.83041,-17.49708 38.83041,-40.046786 0,-22.549708 -17.40351,-39.953217 -38.83041,-39.953217 -21.23976,0 -38.92398,17.403509 -38.92398,39.953217 z m 18.99416,0 c 0,-11.508772 6.36257,-23.017544 19.92982,-23.017544 13.66082,0 19.83626,11.508772 19.83626,23.017544 0,11.508776 -5.80117,23.017546 -19.83626,23.017546 -14.40936,0 -19.92982,-11.50877 -19.92982,-23.017546 z"/>
		<path d="M 1032.9211,52.807016 H 988.28948 V 130 h 17.59062 V 99.029239 h 24.9825 V 83.590642 h -24.9825 V 68.245613 h 27.041 z"/>
		<path d="m 1094.462,99.029239 h 24.8889 V 130 h 17.5906 V 52.807016 h -17.5906 V 83.590642 H 1094.462 V 52.807016 h -17.5907 V 130 h 17.5907 z"/>
		<path d="m 1192.348,52.807016 h -16.2807 L 1144.9094,130 h 18.9006 l 5.7076,-15.4386 h 29.3801 L 1204.6053,130 h 18.9006 z m 0.5614,46.31579 h -17.4035 l 8.6082,-22.45614 h 0.1871 z"/>
		<path d="m 1249.016,82.093566 h 0.1872 L 1279.8932,130 h 17.5907 V 52.807016 h -17.5907 v 47.906434 h -0.1871 L 1249.016,52.807016 h -17.5906 V 130 h 17.5906 z"/>
	</g>
	<g aria-label="PHILIP FRANCIS NOWLAN">
		<path d="M 184.70669,232.10526 V 290 h 13.19299 v -21.47368 h 7.92982 c 11.29825,0 19.78947,-6.66667 19.78947,-18.5965 0,-11.99999 -8.49122,-17.82456 -19.78947,-17.82456 z M 197.89968,258 v -15.36842 h 3.71929 c 5.19299,0 10.10527,1.75439 10.10527,7.7193 0,5.89473 -4.91228,7.64912 -10.10527,7.64912 z"/>
		<path d="m 249.63761,266.77193 h 18.66667 V 290 h 13.19298 v -57.89474 h -13.19298 v 23.08772 H 249.63761 V 232.10526 H 236.44463 V 290 h 13.19298 z"/>
		<path d="M 308.09155,232.10526 H 294.89857 V 290 h 13.19298 z"/>
		<path d="M 334.74726,232.10526 H 321.55427 V 290 h 33.12281 v -11.57895 h -19.92982 z"/>
		<path d="M 379.358,232.10526 H 366.16502 V 290 H 379.358 Z"/>
		<path d="M 392.82072,232.10526 V 290 h 13.19298 v -21.47368 h 7.92983 c 11.29824,0 19.78947,-6.66667 19.78947,-18.5965 0,-11.99999 -8.49123,-17.82456 -19.78947,-17.82456 z M 406.0137,258 v -15.36842 h 3.7193 c 5.19298,0 10.10527,1.75439 10.10527,7.7193 0,5.89473 -4.91229,7.64912 -10.10527,7.64912 z"/>
		<path d="M 502.22093,232.10526 H 468.74725 V 290 h 13.19298 v -23.22807 h 18.73685 v -11.57895 h -18.73685 v -11.50877 h 20.2807 z"/>
		<path d="M 513.49505,232.10526 V 290 h 13.19299 V 267.12281 L 544.37225,290 h 16.77193 L 541.21435,266.07018 C 548.30207,263.82456 553.074,258 553.074,249.29825 c 0,-11.36842 -8.14035,-17.19299 -18.87719,-17.19299 z m 13.19299,25.68421 v -15.15789 h 1.54386 c 4.98245,0 10.94736,0.35088 10.94736,7.57895 0,7.22807 -5.96491,7.57894 -10.94736,7.57894 z"/>
		<path d="M 598.20011,232.10526 H 585.98958 L 562.62116,290 h 14.17544 l 4.2807,-11.57895 h 22.03509 L 607.39309,290 h 14.17544 z m 0.42105,34.73685 H 585.56853 L 592.02467,250 h 0.14035 z"/>
		<path d="m 641.95119,254.07018 h 0.14035 L 665.10908,290 h 13.19299 v -57.89474 h -13.19299 v 35.92983 h -0.14035 L 641.95119,232.10526 H 628.75821 V 290 h 13.19298 z"/>
		<path d="m 720.34922,278.07018 c -13.26316,0 -19.08772,-9.26316 -19.08772,-17.05264 0,-7.71929 5.82456,-16.98245 19.08772,-16.98245 6.73684,0 11.36842,3.57895 11.36842,3.57895 l 5.61404,-11.22807 c 0,0 -6.45614,-5.33334 -19.01755,-5.33334 -16.42105,0 -31.36842,13.47369 -31.36842,30.10527 0,16.5614 15.01755,29.89473 31.36842,29.89473 12.56141,0 19.01755,-5.33333 19.01755,-5.33333 l -5.61404,-11.22807 c 0,0 -4.63158,3.57895 -11.36842,3.57895 z"/>
		<path d="M 760.64089,232.10526 H 747.4479 V 290 h 13.19299 z"/>
		<path d="m 794.06633,231.05263 c -9.33333,0 -18.87719,6.8772 -18.87719,17.68421 0,6.03509 4.07017,11.4386 11.01754,14.8772 6.8772,3.43859 13.05263,5.33333 13.05263,9.54385 0,5.40351 -5.47368,5.68422 -8.35087,5.68422 -6.45614,0 -14.17544,-6.52632 -14.17544,-6.52632 l -6.59649,11.08772 c 0,0 8.21052,7.64912 21.75438,7.64912 11.29825,0 21.82456,-4.8421 21.82456,-18.66666 0,-7.57895 -7.08771,-13.05264 -13.54385,-15.78948 -6.5965,-2.80702 -12.07018,-5.12281 -12.07018,-8.35088 0,-3.15789 2.38596,-5.19298 6.87719,-5.19298 5.96492,0 11.7193,4 11.7193,4 l 5.33333,-10.52631 c 0,0 -7.43859,-5.47369 -17.96491,-5.47369 z"/>
		<path d="m 862.26369,254.07018 h 0.14035 L 885.42158,290 h 13.19299 v -57.89474 h -13.19299 v 35.92983 h -0.14035 L 862.26369,232.10526 H 849.07071 V 290 h 13.19298 z"/>
		<path d="m 909.45121,261.01754 c 0,16.91228 12.07017,30.03509 29.19298,30.03509 16.63158,0 29.1228,-13.12281 29.1228,-30.03509 0,-16.91228 -13.05263,-29.96491 -29.1228,-29.96491 -15.92983,0 -29.19298,13.05263 -29.19298,29.96491 z m 14.24561,0 c 0,-8.63157 4.77193,-17.26315 14.94737,-17.26315 10.24561,0 14.87719,8.63158 14.87719,17.26315 0,8.63158 -4.35088,17.26316 -14.87719,17.26316 -10.80702,0 -14.94737,-8.63158 -14.94737,-17.26316 z"/>
		<path d="m 1020.8163,290 h 14.5965 l 16.4913,-57.89474 h -14.5965 l -9.8948,39.7193 h -0.3508 l -10.5264,-39.7193 h -9.9649 l -10.52629,39.7193 h -0.35087 l -9.89474,-39.7193 H 971.13213 L 987.62336,290 H 1002.29 l 9.2632,-32.49123 z"/>
		<path d="m 1073.2615,232.10526 h -13.193 V 290 h 33.1228 v -11.57895 h -19.9298 z"/>
		<path d="m 1135.1793,232.10526 h -12.2105 L 1099.6003,290 h 14.1755 l 4.2807,-11.57895 h 22.0351 L 1144.3723,290 h 14.1754 z m 0.421,34.73685 h -13.0526 L 1129.0039,250 h 0.1403 z"/>
		<path d="m 1178.9304,254.07018 h 0.1403 L 1202.0883,290 h 13.193 v -57.89474 h -13.193 v 35.92983 h -0.1404 l -23.0175,-35.92983 h -13.193 V 290 h 13.193 z"/>
	</g>
</svg>
